X: 7
T: The Ballydesmond
R: polka
M: 2/4
L: 1/8
K: Ador
|: "D"A>B AG | "C"EF GE | "D"A>B AG | "Am"Ad d/e/d/c/ |
"D"A>B AG | "C"EF GE | "Am"AB cE | "C"ED "D"D2 :|
|:"D"ed d2 | "Am"ed c2 | "C"ed ^cd | "Am"ea a/b/a/g/ |
[1 "C"ed d>f | "Am"ed c>B | "D"A>B cd | "Am"ef g>f :|
[2 "C"e/f/g "G"dB | "C"ce "G"d>B | "Am"AB "C"cE | "D"ED D2 |]


Tune 298	Setting 298

